icons/pie-chart-2-line.svg

<svg xmlns="http://www.w3.org/2000/svg" width="24" height="24" fill="none"><g clip-path="url(#a)"><g><path fill="#121212" d="M11 0.543C11.33 0.514 11.663 0.5 12 0.5C18.351 0.5 23.5 5.649 23.5 12C23.5 12.337 23.486 12.67 23.457 13H21.951C21.449 18.053 17.185 22 12 22C6.477 22 2 17.523 2 12C2 6.815 5.947 2.551 11 2.05V0.542V0.543ZM11 13V4.062C8.98271 4.31868 7.13885 5.33387 5.84319 6.90122C4.54752 8.46857 3.89728 10.4705 4.02462 12.5C4.15196 14.5296 5.04733 16.4345 6.52874 17.8276C8.01016 19.2207 9.96645 19.9975 12 20C13.9486 20 15.8302 19.2888 17.2917 18C18.7533 16.7112 19.6942 14.9333 19.938 13H11ZM21.448 11C21.2187 8.8379 20.255 6.81979 18.7176 5.28239C17.1802 3.74498 15.1621 2.78126 13 2.552V11H21.448Z"/></g></g><defs><clipPath id="a"><rect width="24" height="24" fill="white"/></clipPath></defs></svg>

<svg width="24" height="24" fill="none" xmlns="http://www.w3.org/2000/svg"><g clip-path="url(#a)"><path d="M11 .543c.33-.029.663-.043 1-.043C18.351.5 23.5 5.649 23.5 12c0 .337-.014.67-.043 1h-1.506c-.502 5.053-4.766 9-9.951 9-5.523 0-10-4.477-10-10 0-5.185 3.947-9.449 9-9.95V.542v.001ZM11 13V4.062A8.001 8.001 0 0 0 12 20a8 8 0 0 0 7.938-7H11Zm10.448-2A9.503 9.503 0 0 0 13 2.552V11h8.448Z" /></g><defs><clipPath id="a"><path fill="#fff" d="M0 0h24v24H0z"/></clipPath></defs></svg>
